X:3
T:Scots, Wae Hae Wi' Wallace Bled
C:arr. Carlo Minasi
M:2/4
L:1/8
B:Chappell's One Hundred Scotch Melodies
B:Arranged for the Concertina by Carlo Minasi
Q:"Maestoso  "1/4=120
Z:Peter Dunk 2012
K:C
!f!G>G (G>E|G>A) [c2E2]|[AF]>[AF] [AF]>[GE]|\
[AF]>[BD] ([cE]>[dG])|[ec]>[ec] [dG]>[cE]|\
[cE]>[dG] [e2c2]|(c>A A>G)|LG4|]
[ec]>[ec] [ec]>[dB]|([ec]>[fd] [g2e2])|\
[dG]>[dG] [dG]>[cE]|([dG]>[ec] [f2d2])|\
(g>e) ([dG]>[cE]|[cE]>[dG]) [e2c2]|\
[cA]>[AF] [AF]>[GE]|L[G4E4]|]

